polaris-icons/icons/new-icons/PlayCircleMajor.svg

<svg width="20" height="20" viewBox="0 0 20 20" fill="none" xmlns="http://www.w3.org/2000/svg">
<path fill-rule="evenodd" clip-rule="evenodd" d="M13.875 10.6494C14.1071 10.5154 14.25 10.2678 14.25 9.99984C14.25 9.73189 14.1071 9.48429 13.875 9.35032L8.625 6.31923C8.39295 6.18526 8.10705 6.18526 7.875 6.31923C7.64295 6.45321 7.5 6.7008 7.5 6.96875L7.5 13.0309C7.5 13.2989 7.64295 13.5465 7.875 13.6804C8.10705 13.8144 8.39295 13.8144 8.625 13.6804L13.875 10.6494ZM9 11.7319L9 8.26779L12 9.99984L9 11.7319Z" fill="#4A4A4A"/>
<path fill-rule="evenodd" clip-rule="evenodd" d="M18 10C18 14.4183 14.4183 18 10 18C5.58172 18 2 14.4183 2 10C2 5.58172 5.58172 2 10 2C14.4183 2 18 5.58172 18 10ZM16.5 10C16.5 13.5899 13.5899 16.5 10 16.5C6.41015 16.5 3.5 13.5899 3.5 10C3.5 6.41015 6.41015 3.5 10 3.5C13.5899 3.5 16.5 6.41015 16.5 10Z" fill="#4A4A4A"/>
</svg>

<svg viewBox="0 0 20 20" xmlns="http://www.w3.org/2000/svg"><path fill-rule="evenodd" d="M13.875 10.65a.75.75 0 0 0 0-1.3l-5.25-3.03a.75.75 0 0 0-1.125.649v6.062a.75.75 0 0 0 1.125.65l5.25-3.032Zm-4.875 1.082v-3.464l3 1.732-3 1.732Z" fill="#5C5F62"/><path fill-rule="evenodd" d="M18 10a8 8 0 1 1-16 0 8 8 0 0 1 16 0Zm-1.5 0a6.5 6.5 0 1 1-13 0 6.5 6.5 0 0 1 13 0Z" fill="#5C5F62"/></svg>
